X:16
T: MEIN GUTER MICHEL LIEBET MICH
N: F0060
O: Europa, Mitteleuropa, Deutschland
R: Liebes - Lied, Hochzeit
M: 2/4
L: 1/16
K: G
D2 | G3GG2G2 | G2B2G2z2 | G2B2G2
B2 | A2G2F2E2 | D2F2A2
G2 | F2d2d2^c2 | d4z2
D2 | c2c2A2A2 | B2B2G2
G2 | A2A2F2F2 | G2B2d2
d2 | c2c2A2A2 | B2B2G2
G2 | A2A2F2F2 | G4z2

